package/converter/svg/thin/disc-drive.svg

<svg xmlns="http://www.w3.org/2000/svg" viewBox="0 0 512 512"><!-- Font Awesome Pro 6.0.0-alpha2 by @fontawesome - https://fontawesome.com License - https://fontawesome.com/license (Commercial License) --><path d="M256 96C167.635 96 96 167.635 96 256S167.635 416 256 416S416 344.365 416 256S344.365 96 256 96ZM256 400C176.598 400 112 335.402 112 256S176.598 112 256 112S400 176.598 400 256S335.402 400 256 400ZM256 224C238.328 224 224 238.326 224 256S238.328 288 256 288C273.674 288 288 273.674 288 256S273.674 224 256 224ZM256 272C247.178 272 240 264.822 240 256S247.178 240 256 240S272 247.178 272 256S264.822 272 256 272ZM504 464H480V104C480 64.312 447.703 32 408 32H104C64.297 32 32 64.312 32 104V464H8C3.578 464 0 467.594 0 472S3.578 480 8 480H504C508.422 480 512 476.406 512 472S508.422 464 504 464ZM464 464H48V104C48 73.125 73.125 48 104 48H408C438.875 48 464 73.125 464 104V464Z"/></svg>

<svg xmlns="http://www.w3.org/2000/svg" viewBox="0 0 512 512"><!--! Font Awesome Pro 6.6.0 by @fontawesome - https://fontawesome.com License - https://fontawesome.com/license (Commercial License) Copyright 2024 Fonticons, Inc. --><path d="M104 48l304 0c30.9 0 56 25.1 56 56l0 360L48 464l0-360c0-30.9 25.1-56 56-56zM480 464l0-360c0-39.8-32.2-72-72-72L104 32c-39.8 0-72 32.2-72 72l0 360L8 464c-4.4 0-8 3.6-8 8s3.6 8 8 8l32 0 432 0 32 0c4.4 0 8-3.6 8-8s-3.6-8-8-8l-24 0zM416 256A160 160 0 1 0 96 256a160 160 0 1 0 320 0zM256 112a144 144 0 1 1 0 288 144 144 0 1 1 0-288zM240 256a16 16 0 1 1 32 0 16 16 0 1 1 -32 0zm48 0a32 32 0 1 0 -64 0 32 32 0 1 0 64 0z"/></svg>
